X:1
T:Since godly men decay, O Lord
T:Joseph Stephenson
T:Text: Tate/Brady on Ps 12.
T:This edition by Edmund Gooch released into the public domain, March 2013.
T:Since godly men decay, O Lord
T:Ps. 12th. A 4 Voce.
C:Joseph Stephenson
Z:Text: Tate/Brady on Ps 12.
%%score [ 1 2 3 4 ]
L:1/8
M:4/4
K:Gmin
V:1 treble nm="SOPRANO" snm="S."
V:2 treble nm="ALTO" snm="A."
V:3 treble-8 transpose=-12 nm="TENOR" snm="T."
V:4 bass nm="BASS" snm="B."
V:1
 G8 | B4 A4 | B4 c4 | d4 (c2 B2) | A8 | z4 G4 | d4 B4 | B4 A4 | B8 | z4 B4 | A4 G4 | ^F4 G4 | %12
w: For|God, who|hears the|suff- ’ring _|poor,|And|their op-|pres- sion|knows,|Will|soon a-|rise and|
w: Since|god- ly|men de-|cay, O _|Lord,|Do|thou my|cause de-|fend;|For|scarce these|wret- ched|
w: In|vain those|foo- lish|boa- sters _|say,|Our|tongues are|sure our|own;|With|doubt- ful|words we|
 (B2 A2) G4 | ^F8 | z4 A4 | (B2 c2) (d2 c2) | (B2 A2) (G2 ^F2) | G8 |] %18
w: give _ them|rest,|In|spite _ of _|all _ their _|foes.|
w: times _ af-|ford|One|just _ and _|faith- * ful _|friend.|
w: will _ be-|tray,|And|be _ con- *|troll’d _ by _|none.|
V:2
 D8 | D4 D4 | D4 F4 | F4 E4 | D8 | z4 D4 | D4 D4 | F4 F4 | F8 | z4 D4 | C4 B,4 | D4 D4 | %12
w: For|God, who|hears the|suff- ’ring|poor,|And|their op-|pres- sion|knows,|Will|soon a-|rise and|
w: Since|god- ly|men de-|cay, O|Lord,|Do|thou my|cause de-|fend;|For|scarce these|wret- ched|
w: In|vain those|foo- lish|boa- sters|say,|Our|tongues are|sure our|own;|With|doubt- ful|words we|
 (G2 F2) D4 | D8 | z4 D4 | (G2 FE) F4 | (F2 E2) D4 | D8 |] %18
w: give _ them|rest,|In|spite _ _ of|all _ their|foes.|
w: times _ af-|ford|One|just _ _ and|faith- * ful|friend.|
w: will _ be-|tray,|And|be _ _ con-|troll’d _ by|none.|
V:3
 G8 | G4 ^F4 | G4 A4 | B4 (A2 G2) | ^F8 | z4 B4 | A4 G4 | d4 c4 | d8 | z4 d4 | (f2 e2) d4 | %11
w: For|God, who|hears the|suff- ’ring _|poor,|And|their op-|pres- sion|knows,|Will|soon _ a-|
w: Since|god- ly|men de-|cay, O _|Lord,|Do|thou my|cause de-|fend;|For|scarce _ these|
w: In|vain those|foo- lish|boa- sters _|say,|Our|tongues are|sure our|own;|With|doubt- * ful|
 (B2 c2) d4 | (e2 dc) B4 | A8 | z4 ^F4 | (G2 A2) (B2 c2) | (d2 c2) (B2 A2) | G8 |] %18
w: rise _ and|give _ _ them|rest,|In|spite _ of _|all _ their _|foes.|
w: wret- * ched|times _ _ af-|ford|One|just _ and _|faith- * ful _|friend.|
w: words _ we|will _ _ be-|tray,|And|be _ con- *|troll’d _ by _|none.|
V:4
 G,,8 | G,,4 D,4 | G,4 F,4 | B,,4 C,4 | D,8 | z4 G,4 | ^F,4 G,4 | D,4 F,4 | B,,8 | %9
w: For|God, who|hears the|suff- ’ring|poor,|And|their op-|pres- sion|knows,|
w: Since|god- ly|men de-|cay, O|Lord,|Do|thou my|cause de-|fend;|
w: In|vain those|foo- lish|boa- sters|say,|Our|tongues are|sure our|own;|
"^Notes:The alto part is notated in the alto clef in the source.The opening words of the first verse are given in the source, as ‘Since Godly Men decay &c.’, with the title 'Ps. 12th' alsoindicating the text, four stanzas of which have been underlaid editorially." z4 B,,4 | %10
w: Will|
w: For|
w: With|
 F,4 G,4 | (B,2 A,2) G,4 | (E,2 F,2) G,4 | D,8 | z4 D,4 | C,4 (B,,2 A,,2) | (B,,2 C,2) D,4 | %17
w: soon a-|rise _ and|give _ them|rest,|In|spite of _|all _ their|
w: scarce these|wret- * ched|times _ af-|ford|One|just and _|faith- * ful|
w: doubt- ful|words _ we|will _ be-|tray,|And|be con- *|troll’d _ by|
 G,,8 |] %18
w: foes.|
w: friend.|
w: none.|

